!!!COM: Beethoven
!!!OTL: 7 Variations on a Quartet by Winter 
!!!Variation: Theme f
**function	**harm	**kern	**kern
*M2/4	*M2/4	*staff1	*staff2
*F:	*F:	*clefG2	*clefG2
*	*	*M2/4	*M2/4
*	*	*F:	*F:
*	*	*tb24	*tb24
2T	2V7	12ccL	8GL 8B-
.	.	12ee	.
.	.	.	8CJ
.	.	12ddJ	.
.	.	12ccL	8GL 8B-
.	.	12dd	.
.	.	.	8CJ
.	.	12eeJ	.
=	=	=42	=42
2T	2I64	12ffL	8FL 8A
.	.	12aa	.
.	.	.	8CJ
.	.	12ggJ	.
.	.	12ffL	8FL 8A
.	.	12ee	.
.	.	.	8CJ
.	.	12ddJ	.
=	=	=43	=43
2T	2V	12ccL	8EL 8G
.	.	12b	.
.	.	.	8CJ
.	.	12ccJ	.
.	.	12ccL	8EL 8G
.	.	12dd	.
.	.	.	8CJ
.	.	12b-J	.
=	=	=44	=44
2T	2I64	4a	8FL 8A
.	.	.	8CJ
.	.	4r	8FL 8A
.	.	.	8CJ
=	=	=45	=45
2T	2V7	12ccL	8GL 8B-
.	.	12ee	.
.	.	.	8CJ
.	.	12ddJ	.
.	.	12ccL	8GL 8B-
.	.	12dd	.
.	.	.	8CJ
.	.	12eeJ	.
=	=	=46	=46
4T	4I	12ffL	8F 8A
.	.	12aa	.
.	.	.	8r
.	.	12ggJ	.
4T	4vi	12ffL	8D 8A
.	.	12ee	.
.	.	.	8r
.	.	12ffJ	.
=	=	=47	=47
4P	4ii6	12ddL	8BB- 8G
.	.	12gg	.
.	.	.	8r
.	.	12ffJ	.
4D	4V7	12eeL	8C 8B-
.	.	12dd	.
.	.	.	8r
.	.	12ccJ	.
=	=	=48	=48
4T	4I	4ff	4F 4A
4T	4V7	4G 4B- 4e	4C
=	=	=49	=49
2T	2I	4A 4f	4FF
.	.	4r	4r
=	=	=50||	=50||
*-	*-	*-	*-
